X: 7347
T: Cliffs Of Moher, The
R: jig
M: 6/8
K: Edorian
|:A|Bee e2d|Bde dBA|FDD ADD|FDF AFA|
Bee e2d|Bde dBA|FDD ADD|FED E2:|
A|~B3 AFA|BdB AFE|FDD ADD|FDF AFA|
~B3 AFA|BdB AFE|FDD A,DD|FED E2A|
~B3 AFA|BdB AFE|FDD ADD|FDF AFA|
~B3 AFA|dcB AFE|FDD A,DD|FED E2||

